packages/core/src/svgs/tokens/mono/IRON.svg

<svg width="24" height="24" viewBox="0 0 24 24" fill="none" xmlns="http://www.w3.org/2000/svg">
<path d="M21.942 11.7894L18.6789 6.42097C18.6367 6.35616 18.579 6.30294 18.5109 6.26616C18.4429 6.22939 18.3668 6.21023 18.2894 6.21045H11.7631C11.6053 6.21045 11.4579 6.29466 11.3789 6.42097L8.69472 10.8525C8.67059 10.8901 8.63514 10.9189 8.59352 10.935C8.55191 10.9511 8.50625 10.9536 8.46314 10.942C8.4218 10.9317 8.38501 10.908 8.35839 10.8747C8.33177 10.8414 8.3168 10.8004 8.31577 10.7578V9.15254C8.31577 7.53149 6.81052 6.21045 5.10526 6.21045H2.45264C2.21053 6.21045 2 6.41044 2 6.63676V9.15254C2 10.3157 2.86316 11.3894 3.98421 11.8262C4.0579 11.8578 4.10526 11.9262 4.10526 11.9999C4.10526 12.0788 4.05263 12.1472 3.98421 12.1788C2.8579 12.6105 2 13.6842 2 14.8473V17.3578C2 17.5946 2.21053 17.7893 2.45264 17.7893H5.1C6.81052 17.7893 8.31052 16.4683 8.31052 14.842V13.2421C8.31119 13.2164 8.3169 13.1912 8.32733 13.1679C8.33776 13.1445 8.35268 13.1234 8.37124 13.1059C8.38983 13.0882 8.41168 13.0744 8.43558 13.0653C8.45947 13.0561 8.48494 13.0518 8.51051 13.0526C8.5459 13.0519 8.58084 13.0604 8.61212 13.077C8.6434 13.0936 8.67 13.1176 8.68946 13.1472L11.3737 17.5736C11.4579 17.7051 11.6053 17.7893 11.7684 17.7893H18.2894C18.4473 17.7893 18.6 17.7051 18.6789 17.5788L21.942 12.2105C21.98 12.1467 22 12.074 22 11.9999C22.0005 11.9257 21.9805 11.8529 21.942 11.7894ZM15.1578 14.1051C14.5995 14.1051 14.064 13.8833 13.6692 13.4885C13.2745 13.0937 13.0525 12.5583 13.0525 11.9999C13.0525 11.4416 13.2745 10.906 13.6692 10.5112C14.064 10.1165 14.5995 9.89459 15.1578 9.89459C15.7162 9.89459 16.2517 10.1165 16.6465 10.5112C17.0413 10.906 17.2631 11.4416 17.2631 11.9999C17.2631 12.5583 17.0413 13.0937 16.6465 13.4885C16.2517 13.8833 15.7162 14.1051 15.1578 14.1051Z" fill="white"/>
</svg>

<svg xmlns="http://www.w3.org/2000/svg" width="24" height="24" fill="none" viewBox="0 0 24 24">
    <path fill="#fff" d="m21.942 11.79-3.263-5.37a.46.46 0 0 0-.39-.21h-6.526a.46.46 0 0 0-.384.21l-2.684 4.431a.21.21 0 0 1-.337.023.2.2 0 0 1-.042-.117V9.153c0-1.622-1.505-2.943-3.21-2.943H2.452c-.242 0-.453.2-.453.427v2.516c0 1.163.863 2.236 1.984 2.673.074.032.121.1.121.174a.2.2 0 0 1-.12.179C2.857 12.61 2 13.684 2 14.847v2.51c0 .238.21.432.453.432H5.1c1.71 0 3.21-1.32 3.21-2.947v-1.6a.194.194 0 0 1 .2-.19.21.21 0 0 1 .18.095l2.684 4.427a.47.47 0 0 0 .394.215h6.521a.47.47 0 0 0 .39-.21l3.263-5.369a.41.41 0 0 0 0-.42m-6.784 2.315a2.105 2.105 0 1 1 0-4.21 2.105 2.105 0 0 1 0 4.21"/>
</svg>
